www/assets/images/test_icons/flags/PG.svg

<svg fill="none" height="15" viewBox="0 0 21 15" width="21" xmlns="http://www.w3.org/2000/svg" xmlns:xlink="http://www.w3.org/1999/xlink"><mask id="a" height="15" maskUnits="userSpaceOnUse" width="21" x="0" y="0"><path d="m19 0h-17c-1.10457 0-2 .89543-2 2v11c0 1.1046.89543 2 2 2h17c1.1046 0 2-.8954 2-2v-11c0-1.10457-.8954-2-2-2z" fill="#fff"/></mask><g mask="url(#a)"><path d="m19 0h-17c-1.10457 0-2 .89543-2 2v11c0 1.1046.89543 2 2 2h17c1.1046 0 2-.8954 2-2v-11c0-1.10457-.8954-2-2-2z" fill="#d0091e"/><path clip-rule="evenodd" d="m12 3 2 2s-2-1-3 0l-1 1h3l5 3-2-3h2s0-1-1-2-2-1-2-1v-1l-1 1z" fill="#fdd200" fill-rule="evenodd"/><path clip-rule="evenodd" d="m0 0 21 15h-21z" fill="#000" fill-rule="evenodd"/><g fill="#fff"><path d="m5.5 8c.27614 0 .5-.22386.5-.5s-.22386-.5-.5-.5-.5.22386-.5.5.22386.5.5.5z"/><path d="m3.5 10c.27614 0 .5-.22386.5-.5s-.22386-.5-.5-.5-.5.22386-.5.5.22386.5.5.5z"/><path d="m7.5 10c.27614 0 .5-.22386.5-.5s-.22386-.5-.5-.5-.5.22386-.5.5.22386.5.5.5z"/><path d="m5.5 13c.27614 0 .5-.2239.5-.5s-.22386-.5-.5-.5-.5.2239-.5.5.22386.5.5.5z"/></g><path d="m6.5 12c.27614 0 .5-.2239.5-.5s-.22386-.5-.5-.5-.5.2239-.5.5.22386.5.5.5z" fill="#c7c7c7"/><path d="m19 .5h-17c-.82843 0-1.5.67157-1.5 1.5v11c0 .8284.67157 1.5 1.5 1.5h17c.8284 0 1.5-.6716 1.5-1.5v-11c0-.82843-.6716-1.5-1.5-1.5z" stroke="#000" stroke-opacity=".1"/></g></svg>

<svg width="21" height="15" viewBox="0 0 21 15" fill="none" xmlns="http://www.w3.org/2000/svg">
<mask id="mask0_3_72" style="mask-type:alpha" maskUnits="userSpaceOnUse" x="0" y="0" width="21" height="15">
<path d="M19 0H2C0.89543 0 0 0.89543 0 2V13C0 14.1046 0.89543 15 2 15H19C20.1046 15 21 14.1046 21 13V2C21 0.89543 20.1046 0 19 0Z" fill="white"/>
</mask>
<g mask="url(#mask0_3_72)">
<path d="M19 0H2C0.89543 0 0 0.89543 0 2V13C0 14.1046 0.89543 15 2 15H19C20.1046 15 21 14.1046 21 13V2C21 0.89543 20.1046 0 19 0Z" fill="#D0091E"/>
<path fill-rule="evenodd" clip-rule="evenodd" d="M12 3L14 5C14 5 12 4 11 5L10 6H13L18 9L16 6H18C18 6 18 5 17 4C16 3 15 3 15 3V2L14 3H12Z" fill="#FDD200"/>
<path fill-rule="evenodd" clip-rule="evenodd" d="M0 0L21 15H0V0Z" fill="black"/>
<path d="M5.5 8C5.77614 8 6 7.77614 6 7.5C6 7.22386 5.77614 7 5.5 7C5.22386 7 5 7.22386 5 7.5C5 7.77614 5.22386 8 5.5 8Z" fill="white"/>
<path d="M3.5 10C3.77614 10 4 9.77614 4 9.5C4 9.22386 3.77614 9 3.5 9C3.22386 9 3 9.22386 3 9.5C3 9.77614 3.22386 10 3.5 10Z" fill="white"/>
<path d="M7.5 10C7.77614 10 8 9.77614 8 9.5C8 9.22386 7.77614 9 7.5 9C7.22386 9 7 9.22386 7 9.5C7 9.77614 7.22386 10 7.5 10Z" fill="white"/>
<path d="M5.5 13C5.77614 13 6 12.7761 6 12.5C6 12.2239 5.77614 12 5.5 12C5.22386 12 5 12.2239 5 12.5C5 12.7761 5.22386 13 5.5 13Z" fill="white"/>
<path d="M6.5 12C6.77614 12 7 11.7761 7 11.5C7 11.2239 6.77614 11 6.5 11C6.22386 11 6 11.2239 6 11.5C6 11.7761 6.22386 12 6.5 12Z" fill="#C7C7C7"/>
<path d="M19 0.5H2C1.17157 0.5 0.5 1.17157 0.5 2V13C0.5 13.8284 1.17157 14.5 2 14.5H19C19.8284 14.5 20.5 13.8284 20.5 13V2C20.5 1.17157 19.8284 0.5 19 0.5Z" stroke="black" stroke-opacity="0.1"/>
</g>
</svg>
